!!!OTL: König und Marquise (4-29), S. 41
!!!id: P0590
**kern
*clefG2
*k[f#]
*D:
{4f#
4f#
4e
=1
2d
4d
8e
8f#
4a
=2
2f#}
4r
=3
{4a
4f#
4e
=4
2d
4d
4e
4f#
4a
=5
2f#}
4r
=6
{4e
=7
8f#
8f#
4e
8f#
8f#
8g
8g
=8
2a
2f#}
4r
=9
{4a
4f#
4e
=10
2d
4d
4d
4e
4f#
8g
8f#
=11
2e}
=12
{8d
8e
4f#
4e
4d
=13
4f#
4a
4f#
4e
=14
2.d}
==
*-
!!!minrhy: 8
!!!meters: FREI]  ZZ[5 interpreted as [0/4, 0/4]
!!!cut: König und Marquise (4-29), S. 41
!!!reg: Lothringen
!!!trd: PINCK, Louis: Verklingende Weisen Bd 4, Kassel 1939
!!!rhy1: X_X_X_  X__X_XXX_  X__0_
!!!rhy2: X_X_X_  X__X_X_X_X_  X__0_
!!!key: P0590  08  D FREI]  ZZ[5
!!!mod: PENTATONIK DUR ?]  AMBITUS[5
!!!kad: 33321
!!!akz: 313_513_235_512_131_
!!!fot: 'a__aw_b__aw_c__
!!!for: 'a__b__c__d__e__
!!!fok: 'S__Sd_^a_Sd_M__
!!!fkt: Liebeslied?
!!!bem: kleinste metr. E. ist 16tel
!! LOTH VKL
!! PR[39] 2K[5] 2G[16] 3K[5] 3G[2] 4A[0] 4Ü[0] 5A[2] 6K[0] 6G[0]
!! 7K[0] 7G[0] 8A[0] MEHR[0] SI[30] ABS[44] SR[20] SP[9]
!! ST[12] 2k[5] 2g[20] 3k[5] 3g[2] 4d[0] 4ü[0] 5d[0] 6k[0] 6g[0]
!! 7k[0] 7g[0] 8d[0] mehr[0] si[32] dm[-2] sr[25] sp[7]
!! 1F[22] 2F[65] 3F[11] 4F[0] LF[0] 2P[0] 3P[2] 4P[0] TRI[0] DF[4] AB[46]
!! TF[0] U3K[0] U3[0] U4[0] U4Ü[0] U5[0] U6K[0] U6[0] U7K[0] U7[0]
!! N1[11] N2K[0] N2[22] N3K[0] N3[29] N4[4] N4Ü[0] N5[20] N6K[0] N6[13]
!!!n7k: 0] N7[0] O1[0] O2K[0] O2[0] O3K[0] O3[0] HÖ[0
